tn/instagram-outline.svg

<svg viewBox="0 0 15 15" fill="none" xmlns="http://www.w3.org/2000/svg" height="1em" width="1em">
  <path d="M11 3.5H12M4.5 0.5H10.5C12.7091 0.5 14.5 2.29086 14.5 4.5V10.5C14.5 12.7091 12.7091 14.5 10.5 14.5H4.5C2.29086 14.5 0.5 12.7091 0.5 10.5V4.5C0.5 2.29086 2.29086 0.5 4.5 0.5ZM7.5 10.5C5.84315 10.5 4.5 9.15685 4.5 7.5C4.5 5.84315 5.84315 4.5 7.5 4.5C9.15685 4.5 10.5 5.84315 10.5 7.5C10.5 9.15685 9.15685 10.5 7.5 10.5Z" stroke="black"/>
</svg>

<svg viewBox="0 0 15 15" fill="none" xmlns="http://www.w3.org/2000/svg" height="1em" width="1em">
  <path d="M11 3.5h1M4.5.5h6a4 4 0 0 1 4 4v6a4 4 0 0 1-4 4h-6a4 4 0 0 1-4-4v-6a4 4 0 0 1 4-4Zm3 10a3 3 0 1 1 0-6 3 3 0 0 1 0 6Z" stroke="#000"/>
</svg>
